!!!OTL: "Genoveva" ACH ICH AERMSTE BIN GEBOREN
!!!ARE: Europa, Mitteleuropa, Deutschland, Rhein
!!!SCT: Z1036
!!!YEM: Copyright 1995, estate of Helmut Schaffrath.
**kern
*ICvox
*Ivox
*M3/4
*k[b-]
*F:
{8.ff
16dd
=1
4.cc
8dd
8.cc
16b-
=2
4b-
4a}
{8.a
16g
=3
4a
4ff
8.a
16g
=4
4g
4f}
{8.ff
16dd
=5
4.cc
8dd
8.cc
16b-
=6
4b-
4a}
{8.a
16g
=7
4a
4ff
8.a
16g
=8
4g
4f}
{8.b-
16a
=9
4.a
8ff
8.ee
16dd
=10
8ff
8cc
4cc}
{8.b-
16a
=11
4.a
8ff
8ee
16dd
16ee
=12
4ff
4r}
{8.ff
16dd
=13
4.cc
8dd
8.cc
16b-
=14
4b-
4a}
{8.a
16g
=15
4a
4ff
8.a
16g
=16
4g
4f}
==
!!!AGN: Romanze, Ballade, Tod, Verlassenheit, Genoveva - Sage
!!!ONB: ESAC (Essen Associative Code) Database: ZUCCAL
!!!AMT: simple triple
!!!AIN: vox
!!!EED: Helmut Schaffrath
!!!EEV: 1.0
*-
